Adwaita++/actions/16/align-horizontal-left.svg

<svg height="16" viewBox="0 0 16 16" width="16" xmlns="http://www.w3.org/2000/svg">
  <path d="m2 1v14h2v-1h10v-4h-10v-4h10v-4h-10v-1z" fill="#474747"/>
</svg>

<svg xmlns="http://www.w3.org/2000/svg" width="16" height="16" viewBox="0 0 16 16">
 <defs>
  <style id="current-color-scheme" type="text/css">
   .ColorScheme-Text { color:#474747; } .ColorScheme-Highlight { color:#4285f4; }
  </style>
 </defs>
 <path style="fill:currentColor" class="ColorScheme-Text" d="M 2 1 L 2 15 L 4 15 L 4 14 L 14 14 L 14 10 L 4 10 L 4 6 L 14 6 L 14 2 L 4 2 L 4 1 L 2 1 z"/>
</svg>
